X: 1
T: The Gay Gordons
C: James Scott Skinner
C: Master Method for Highland Bagpipe (1953)
C: from Nigel Gatherer, arr. T. Traub 11-10-2011
M: 2/4
R: March
L: 1/8
K: A
|: e|"A"A>B cB/A/|"D"d>e fe/d/|"A"ca cB/A/|"E"cB Be|"A"A>B cB/A/|"D"d>e fe/d/|"A"ca "E"e/c/d/B/|"A"cA A:|
c/e/|"A"a>f e d/c/|"D"d>e fe/d/|"A"ca cB/A/|"E"cB Bc/e/|"A"a>f ed/c/|"D"d>e fe/d/|"A"ca "E"e/c/d/B/|"A"cA A ||
c/e/|"A"a>f e d/c/|"D"d>e fe/d/|"A"ca cB/A/|"E"cB B e|"A"A>B cB/A/|"D"d>e fe/d/|"A"ca "E"e/c/d/B/|"A"cA A |]
